X: 23
T: Mary's Return
M: 6/8
L: 1/8
B: "O'Neill's 23"
N: "Cheerful" "collected by J. O'Neill"
Z: "Transcribed by Norbert Paap, norbertp@bdu.uva.nl"
K:C
c/2-d/2|efe dcB|cde GcB|Aag fed|c2 d/2-c/2 Bzc/2-d/2|
efe ded|cde Gzc/2-B/2|Aag fdB|d3 edc2||
c/2-d/2|efg dgf|efg ccB|ABc edc|B3 dzg/2-f/2|
efg dgf|efg ccB|Aag fdB|d3 edc2||
